!!!COM: Haydn, Franz Joseph
!!!OTL: String Quartet in D Minor
!!!OPS: Opus 42
!!!OMD: Adagio e cantabile
!!!OMV: 3
!!!SCT: H III:43
!!!SCA: Thematisch-bibliographisches Werkevererzeichnis (A. van Hoboken)
!!!YOR: Trautwein Edition
!!!ENC: Frances Bennion
!!!CDT: 1732/3/31/-1809/5/31/
!!!CNT: Oesterreich
!!!YEC: Copyright (c) 1994, 2000 Center for Computer Assisted Research in the Humanities
!!!YEM: Rights to all derivative editions reserved.
!!!YEM: Refer to licensing agreement for further details.
!!!YEN: United States of America
**kern	**kern	**kern	**kern
*k[b-e-]	*k[b-e-]	*k[b-e-]	*k[b-e-]
*B-:	*B-:	*B-:	*B-:
*clefF4	*clefC3	*clefG	*clefG
*M2/2	*M2/2	*M2/2	*M2/2
[1B-	2f	2b-	2dd
.	2e-	2a	4ee-
.	.	.	8dd
.	.	.	8cc
=2	=2	=2	=2
2B-]	2d	2f	4.b-
.	.	.	16cc
.	.	.	16dd
4G	4B-	4b-	4ee-
4D	4B-	4b-	4ff
=3	=3	=3	=3
2E-	2B-	[1b-	4.gg
.	.	.	8aa
2D	2F	.	4bb-
.	.	.	8aa
.	.	.	8gg
=4	=4	=4	=4
4C	4G	4b-]	2ee-
4FF	4c	4a	.
2BB-	2F	2b-	2dd
=5	=5	=5	=5
2F	1F	2a	2cc
2BB-	.	4b-	4dd
.	.	8a	8cc
.	.	8g	8b-
=6	=6	=6	=6
2.F	2.f	4.a	4.cc
.	.	16f	16a
.	.	16g	16b-
.	.	4a	4cc
4D	4f	4b	4dd
=7	=7	=7	=7
4.C	4g	4.cc	4ee-
.	4e-	.	8.ee-
8BB-	.	8dd	.
.	.	.	16ff
2AA	4c	4ee-	4gg
.	[4f	8dd	8ff
.	.	8cc	8ee-
=8	=8	=8	=8
4BB-	1f]	2b-	2dd
4D	.	.	.
2F	.	2a	2cc
=9	=9	=9	=9
[1B-	2f	2b-	2dd
.	2e-	2a	4ee-
.	.	.	8dd
.	.	.	8cc
=10	=10	=10	=10
2B-]	2d	2f	4.b-
.	.	.	16cc
.	.	.	16dd
4G	4B-	4b-	4ee-
4D	4A-	4b-	4ff
=11	=11	=11	=11
2E-	2G	2.b-	4gg
.	.	.	8.gg
.	.	.	32aa
.	.	.	32bb-
4F	4F	.	4dd
4F	4e-	4a	8cc
.	.	.	16b-
.	.	.	16cc
=12	=12	=12	=12
2.BB-	2e-	2a	2cc
.	4d	4b-	4b-
4r	4r	4r	4r
=13	=13	=13	=13
2B-	2B-	2d	[1ff
4c	2F	4e-	.
8B-	.	8d	.
8A	.	8c	.
=14	=14	=14	=14
2B-	2B-	2d	8ff]
.	.	.	8aa
.	.	.	8bb-
.	.	.	8ccc
2r	2r	2r	8ddd
.	.	.	8bb-
.	.	.	8fff
.	.	.	8fff
=15	=15	=15	=15
2f	2a	2cc	[1fff
2B-	4b-	4dd	.
.	8a	8cc	.
.	8b-	8dd	.
=16	=16	=16	=16
2f	2a	2cc	8fff]
.	.	.	8eee
.	.	.	8fff
.	.	.	8eee
2r	2r	2r	8fff
.	.	.	8eee-
.	.	.	8ddd
.	.	.	8ccc
=17	=17	=17	=17
2g	2dd	4.gg	4.bb-
.	.	8bb-	8ddd
2e	4g	8bb-	8ddd
.	.	8aa	8ccc
.	4cc	8aa	8ccc
.	.	8gg	8bb-
=18	=18	=18	=18
2f	2cc	4gg	4bb-
.	.	8ff	8aa
.	.	8gg	8bb-
2r	2r	8gg#	8bb
.	.	8aa	8ccc
.	.	8bb-	8ddd
.	.	8aa	8ccc
=19	=19	=19	=19
8c	8e	8bb-	2.ccc
8d	8f	8aa	.
8e	8g	8gg	.
8f	8a	8ff	.
4g	4b-	4ee	.
4c	4g	4b-	4ee
=20	=20	=20	=20
2.F	2e	2b-	2gg
.	4f	4a	4ff
4r	4r	4r	8r
.	.	.	8ff
=21	=21	=21	=21
2B-	2B-	2d	[1ff
4c	2F	4e-	.
8B-	.	8d	.
8A	.	8c	.
=22	=22	=22	=22
2B-	2B-	2d	8ff]
.	.	.	16gg
.	.	.	16aa
.	.	.	16bb-
.	.	.	16ccc
.	.	.	16ddd
.	.	.	16eee-
2r	2r	2r	8fff
.	.	.	8fff
.	.	.	8fff
.	.	.	8fff
=23	=23	=23	=23
2f	2a	2cc	[1fff
2B-	4b-	4dd	.
.	8a	8cc	.
.	8b-	8dd	.
=24	=24	=24	=24
2f	2a	2cc	16fff]
.	.	.	16eee
.	.	.	16fff
.	.	.	16eee
.	.	.	16fff
.	.	.	16eee
.	.	.	16fff
.	.	.	16eee
2r	2r	2r	8fff
.	.	.	8eee-
.	.	.	8ddd
.	.	.	8ccc
=25	=25	=25	=25
2g	4dd	[1gg	4bb-
.	2b-	.	8bb-
.	.	.	8ccc#
2e	.	.	4ddd
.	[4cc	.	8ccc
.	.	.	8bb-
=26	=26	=26	=26
2f	2cc]	4gg]	4bb-
.	.	8ff	8aa
.	.	8gg	8bb-
2r	2r	8gg#	8bb
.	.	8aa	8ccc
.	.	8bb-	8ddd
.	.	8aa	8ccc
=27	=27	=27	=27
8c	8e	8bb-	2.ccc
8d	8f	8aa	.
8e	8g	8gg	.
8f	8a	8ff	.
4g	4b-	4ee	.
4c	4g	4b-	4ee
=28	=28	=28	=28
2.F	2e	2b-	2gg
.	4f	4a	4ff
4r	4r	4r	4r
=29	=29	=29	=29
2f	2a	2cc	[1ff
2B-	4b-	4dd	.
.	8a	8cc	.
.	8g	8b-	.
=30	=30	=30	=30
2f	4.a	4.cc	1ff]
.	16f	16a	.
.	16g	16b-	.
2r	4a	4cc	.
.	4a	4cc	.
=31	=31	=31	=31
[1D	2a	2cc	2ff#
.	2g	4b-	4gg
.	.	8a	8ff#
.	.	8b-	8gg
=32	=32	=32	=32
1D]	4.f#	2a	4.aa
.	16d	.	16ff#
.	16e	.	16gg
.	4f#	2r	4aa
.	4f#	.	4aa
=33	=33	=33	=33
2G	4g	2dd	2bb-
.	4G	.	.
2D	4F#	2cc	4aa
.	4A	.	8gg
.	.	.	8ff#
=34	=34	=34	=34
2.E-	2A	2cc	2ff#
.	4G	4b-	4gg
4BB	4a-	4dd	4ff
=35	=35	=35	=35
2C	4g	4cc	4ee-
.	4c	8b-	8dd
.	.	8a	8cc
2D	4d	4g	4b-
.	4d	4f#	4a
=36	=36	=36	=36
1GG	1G	1g	1g
=37	=37	=37	=37
2AA-	2A-	2a-	2a-
2BB-	4D	[2A-	4f
.	4F	.	8e-
.	.	.	8d
=38	=38	=38	=38
[1EE-	2F	2A-]	2d
.	4E-	4G	4e-
.	4r	4A	4f#
=39	=39	=39	=39
2.EE-]	4r	4B-	4g
.	4f	4a-	4b
.	4e-	4g	4cc
4CC	4c	8g	8ee-
.	.	8e-	8cc
=40	=40	=40	=40
2.FF	2f	2d	2b-
.	2r	4c	8a
.	.	.	8b-
4r	.	4r	8cc
.	.	.	8cc#
=41	=41	=41	=41
[1B-	2f	2b-	2dd
.	2e-	2a	4ee-
.	.	.	8dd
.	.	.	8cc
=42	=42	=42	=42
2B-]	2d	2f	4.b-
.	.	.	16cc
.	.	.	16dd
4G	4B-	4b-	4ee-
4D	4B-	4b-	4ff
=43	=43	=43	=43
2E-	2B-	[1b-	4.gg
.	.	.	8aa
2D	2F	.	4bb-
.	.	.	8aa
.	.	.	8gg
=44	=44	=44	=44
4C	4G	4b-]	2ee-
4FF	4c	4a	.
2BB-	2F	2b-	2dd
=45	=45	=45	=45
2F	1F	2a	2cc
2BB-	.	4b-	4dd
.	.	8a	8cc
.	.	8g	8b-
=46	=46	=46	=46
2.F	2.f	4.a	4.cc
.	.	16f	16a
.	.	16g	16b-
.	.	4a	4cc
4D	4f	4b	4dd
=47	=47	=47	=47
4.C	4g	4.cc	4ee-
.	4e-	.	8.ee-
8BB-	.	8dd	.
.	.	.	16ff
2AA	4c	4ee-	4gg
.	[4f	8dd	8ff
.	.	8cc	8ee-
=48	=48	=48	=48
4BB-	1f]	2b-	2dd
4D	.	.	.
2F	.	2a	2cc
=49	=49	=49	=49
[1B-	2f	2b-	2dd
.	2e-	2a	4ee-
.	.	.	8dd
.	.	.	8cc
=50	=50	=50	=50
2B-]	2d	2f	4.b-
.	.	.	16cc
.	.	.	16dd
4G	4B-	4b-	4ee-
4D	4A-	4b-	4ff
=51	=51	=51	=51
2E-	2G	2.b-	4gg
.	.	.	8.gg
.	.	.	32aa
.	.	.	32bb-
4F	4F	.	4dd
4F	4e-	4a	8cc
.	.	.	16b-
.	.	.	16cc
=52	=52	=52	=52
[1BB-	2e-	2a	2cc
.	4d	4b-	4b-
.	4r	4r	4r
=53	=53	=53	=53
1BB-_	2e-	2g	[1bb-
.	4g	4b-	.
.	8f	8a	.
.	8e-	8g	.
=54	=54	=54	=54
1BB-_	1d	1f	4bb-]
.	.	.	4ff
.	.	.	4dd
.	.	.	4b-
=55	=55	=55	=55
1BB-_	4.c	4.e-	1a
.	8d	8f	.
.	4e-	4g	.
.	8d	8f	.
.	8c	8e-	.
=56	=56	=56	=56
4BB-]	4B-	4d	4b-
4r	4r	4r	4r
4BB-	4B-	4d	4f
4r	4r	4r	4r
=57	=57	=57	=57
4BB-	4F	4B-	4d
2.r	2.r	2.r	2.r
==	==	==	==
*-	*-	*-	*-
!!!RWG1: This file contains only pitch and duration data.
!!!RWG2: Transposing instruments are not transposed.
!!!RWG3: Spines may have incompatible meters.
!!!RWG4: Durations of rests and tied notes may be interpreted.
!!!RWG: Key is interpreted using the Humdrum key tool.
!!!AFT: stage1
!!!END: 1997/04/15
!!!KEY: 1148111100
!!!EMD: Converted from MuseData to Humdrum Dec 16, 2000, by Andreas Kornstaedt using muse2kern.
!!!EMD: Manual editing by Craig Sapp, Nov 2001
